docs/img/login/eye.svg

<svg width="24" height="24" viewBox="0 0 24 24" fill="none" xmlns="http://www.w3.org/2000/svg">
<path fill-rule="evenodd" clip-rule="evenodd" d="M2.70713 1.29289L1.29292 2.70711L5.35774 6.77193C4.97908 7.08574 4.60434 7.42275 4.23373 7.78115C3.40451 8.58305 2.65433 9.43916 1.99393 10.2956C1.59543 10.8124 1.3125 11.219 1.15759 11.4612L0.812988 12L1.15759 12.5388C1.3125 12.781 1.59543 13.1876 1.99393 13.7044C2.65433 14.5608 3.40451 15.417 4.23373 16.2188C6.66434 18.5694 9.27247 20 12 20C13.7209 20 15.3943 19.4305 17.0056 18.4198L21.2929 22.7071L22.7071 21.2929L2.70713 1.29289ZM15.5447 16.9588L14.032 15.4462C13.4365 15.7981 12.7418 16 12 16C9.79088 16 8.00002 14.2091 8.00002 12C8.00002 11.2582 8.20195 10.5635 8.55384 9.96803L6.77974 8.19393C6.39235 8.50634 6.0068 8.84872 5.62406 9.21885C4.86986 9.9482 4.18241 10.7327 3.57777 11.5169C3.44718 11.6862 3.32651 11.8478 3.21619 12C3.32651 12.1522 3.44718 12.3138 3.57777 12.4831C4.18241 13.2673 4.86986 14.0518 5.62406 14.7811C7.71751 16.8056 9.89495 18 12 18C13.1682 18 14.3586 17.6322 15.5447 16.9588ZM10.0678 11.482C10.0236 11.6472 10 11.8208 10 12C10 13.1046 10.8955 14 12 14C12.1792 14 12.3528 13.9764 12.5181 13.9323L10.0678 11.482ZM20.0981 15.891L18.6838 14.4767C19.318 13.8356 19.9009 13.1593 20.4223 12.4831C20.5529 12.3138 20.6735 12.1522 20.7839 12C20.6735 11.8478 20.5529 11.6862 20.4223 11.5169C19.8176 10.7327 19.1302 9.9482 18.376 9.21885C16.2825 7.19437 14.1051 6 12 6C11.4777 6 10.951 6.07353 10.4221 6.21502L8.84017 4.63304C9.87262 4.22138 10.9271 4 12 4C14.7276 4 17.3357 5.43062 19.7663 7.78115C20.5955 8.58305 21.3457 9.43916 22.0061 10.2956C22.4046 10.8124 22.6875 11.219 22.8425 11.4612L23.1871 12L22.8425 12.5388C22.6875 12.781 22.4046 13.1876 22.0061 13.7044C21.4349 14.4451 20.7966 15.1856 20.0981 15.891Z" fill="black" fill-opacity="0.7"/>
</svg>

<svg width="24" height="24" fill="none" xmlns="http://www.w3.org/2000/svg"><path fill-rule="evenodd" clip-rule="evenodd" d="M2.707 1.293L1.293 2.707l4.065 4.065c-.379.314-.754.65-1.124 1.01-.83.801-1.58 1.657-2.24 2.514-.399.516-.681.923-.836 1.165L.813 12l.345.539c.155.242.437.649.836 1.165.66.857 1.41 1.713 2.24 2.515C6.664 18.569 9.272 20 12 20c1.72 0 3.394-.57 5.006-1.58l4.287 4.287 1.414-1.414-20-20zm12.838 15.666l-1.513-1.513a4 4 0 0 1-5.478-5.478L6.78 8.194c-.388.312-.773.655-1.156 1.025A21.324 21.324 0 0 0 3.216 12a21.319 21.319 0 0 0 2.408 2.781C7.718 16.806 9.895 18 12 18c1.168 0 2.359-.368 3.545-1.041zm-5.477-5.477a2.001 2.001 0 0 0 2.45 2.45l-2.45-2.45zm10.03 4.409l-1.414-1.414a21.595 21.595 0 0 0 2.1-2.477 21.33 21.33 0 0 0-2.408-2.781C16.282 7.194 14.106 6 12 6c-.522 0-1.049.074-1.578.215L8.84 4.633C9.873 4.221 10.927 4 12 4c2.728 0 5.336 1.43 7.766 3.781a23.31 23.31 0 0 1 2.24 2.515c.399.516.681.923.837 1.165l.344.539-.345.539c-.154.242-.437.649-.836 1.165a23.54 23.54 0 0 1-1.908 2.187z" fill="#000" fill-opacity=".7"/></svg>
